X:110
T: Trip Up Stairs
N: O'Farrell's Pocket Companion v.2 (Sky ed. p.61)
N: "Irish"
M: 6/8
L: 1/8
R: jig
Q: 320
K: G
D|G2A B2G|A2F G2E|BGE EGE|BGE E2F|
G2A B2G|A2F G2E|AFD DED|AFD D2 :|
z|d2B c2A|BAG c2A|BGE EGE|BGE E3|
d2B c2A|BAG Bcd|AFD DED|AFD D2 :|
